;FLAVOR:Marlin
;TIME:2535
;Filament used: 2.97495m
;Layer height: 0.2
;Generated with Cura_SteamEngine 3.5.0
M140 S60
M105
M190 S60
M104 S220
M105
M109 S220
M82 ;absolute extrusion mode
G28 ;Home
G1 Z15.0 F6000 ;Move the platform down 15mm
;Prime the extruder
G92 E0
G1 F200 E3
G92 E0
G92 E0
G1 F2400 E-5
;LAYER_COUNT:16
;LAYER:0
M107
M204 S5000
M205 X30 Y30
G0 F3600 X70.293 Y44.394 Z0.2
M204 S500
M205 X20 Y20
;TYPE:WALL-INNER
G1 F2400 E0
G1 F1800 X70.733 Y44.369 E0.01466
G1 X71.22 Y44.369 E0.03086
G1 X71.662 Y44.394 E0.04558
G1 X72.163 Y44.448 E0.06234
G1 X72.622 Y44.525 E0.07782
G1 X73.054 Y44.621 E0.09254
G1 X73.537 Y44.758 E0.10924
G1 X73.964 Y44.904 E0.12425
G1 X74.376 Y45.072 E0.13904
G1 X74.845 Y45.293 E0.15629
G1 X75.225 Y45.498 E0.17065
G1 X75.656 Y45.763 E0.18748
G1 X76.022 Y46.017 E0.2023
G1 X76.384 Y46.298 E0.21754
G1 X76.749 Y46.616 E0.23364
G1 X77.1 Y46.957 E0.24991
G1 X77.405 Y47.289 E0.26491
G1 X77.698 Y47.643 E0.28019
G1 X77.994 Y48.045 E0.2968
G1 X78.232 Y48.409 E0.31126
G1 X78.478 Y48.836 E0.32765
G1 X78.695 Y49.265 E0.34364
G1 X78.875 Y49.675 E0.35854
G1 X79.035 Y50.103 E0.37373
G1 X79.186 Y50.585 E0.39053
G1 X79.303 Y51.05 E0.40648
G1 X79.385 Y51.466 E0.42058
G1 X79.449 Y51.925 E0.436
G1 X79.492 Y52.436 E0.45305
G1 X79.504 Y52.888 E0.46809
G1 X79.519 Y105.92 E2.23194
G1 X79.506 Y106.401 E2.24795
G1 X79.465 Y106.903 E2.2647
G1 X79.407 Y107.326 E2.2789
G1 X79.313 Y107.81 E2.2953
G1 X79.199 Y108.259 E2.31071
G1 X79.064 Y108.696 E2.32592
G1 X78.894 Y109.152 E2.34211
G1 X78.709 Y109.578 E2.35755
G1 X78.505 Y109.982 E2.37261
G1 X78.25 Y110.425 E2.38961
G1 X77.996 Y110.814 E2.40506
G1 X77.73 Y111.176 E2.42
G1 X77.43 Y111.542 E2.43574
G1 X77.125 Y111.874 E2.45073
G1 X76.761 Y112.228 E2.46762
G1 X76.432 Y112.515 E2.48214
G1 X76.032 Y112.827 E2.49902
G1 X75.661 Y113.086 E2.51407
G1 X75.281 Y113.319 E2.52889
G1 X74.83 Y113.564 E2.54596
G1 X74.434 Y113.75 E2.56051
G1 X73.969 Y113.939 E2.57721
G1 X73.548 Y114.084 E2.59202
G1 X73.075 Y114.219 E2.60838
G1 X72.65 Y114.313 E2.62286
G1 X72.174 Y114.392 E2.6389
G1 X71.68 Y114.447 E2.65544
G1 X71.24 Y114.472 E2.67009
G1 X70.752 Y114.472 E2.68632
G1 X70.313 Y114.448 E2.70095
G1 X69.819 Y114.393 E2.71748
G1 X69.342 Y114.314 E2.73356
G1 X68.915 Y114.219 E2.74811
G1 X68.439 Y114.084 E2.76457
G1 X68.023 Y113.941 E2.7792
G1 X67.565 Y113.755 E2.79564
G1 X67.139 Y113.554 E2.81131
G1 X66.742 Y113.339 E2.82632
G1 X66.317 Y113.078 E2.84291
G1 X65.943 Y112.818 E2.85806
G1 X65.589 Y112.543 E2.87297
G1 X65.217 Y112.22 E2.88936
G1 X64.865 Y111.877 E2.9057
G1 X64.563 Y111.548 E2.92056
G1 X64.258 Y111.176 E2.93656
G1 X63.994 Y110.817 E2.95138
G1 X63.726 Y110.406 E2.9677
G1 X63.493 Y110.002 E2.98321
G1 X63.284 Y109.588 E2.99863
G1 X63.1 Y109.169 E3.01385
G1 X62.925 Y108.701 E3.03047
G1 X62.791 Y108.268 E3.04555
G1 X62.672 Y107.798 E3.06167
G1 X62.583 Y107.343 E3.07709
G1 X62.523 Y106.907 E3.09173
G1 X62.481 Y106.401 E3.10862
G1 X62.469 Y105.954 E3.12349
G1 X62.454 Y52.922 E4.88734
G1 X62.468 Y52.434 E4.90358
G1 X62.508 Y51.937 E4.92016
G1 X62.566 Y51.515 E4.93433
G1 X62.66 Y51.03 E4.95076
G1 X62.768 Y50.601 E4.96548
G1 X62.925 Y50.1 E4.98294
G1 X63.087 Y49.668 E4.99828
G1 X63.269 Y49.254 E5.01333
G1 X63.48 Y48.837 E5.02887
G1 X63.713 Y48.433 E5.04438
G1 X63.964 Y48.048 E5.05967
G1 X64.261 Y47.643 E5.07637
G1 X64.532 Y47.314 E5.09055
G1 X64.88 Y46.935 E5.10766
G1 X65.224 Y46.601 E5.12361
G1 X65.557 Y46.312 E5.13827
G1 X65.915 Y46.033 E5.15337
G1 X66.316 Y45.755 E5.1696
G1 X66.72 Y45.507 E5.18537
G1 X67.126 Y45.286 E5.20074
G1 X67.573 Y45.076 E5.21717
G1 X67.98 Y44.91 E5.23179
G1 X68.425 Y44.757 E5.24744
G1 X68.9 Y44.622 E5.26386
G1 X69.32 Y44.529 E5.27817
G1 X69.803 Y44.449 E5.29445
G1 X70.293 Y44.394 E5.31085
M204 S5000
M205 X30 Y30
G0 F3600 X73.371 Y62.338
G0 X73.422 Y63.689
M204 S500
M205 X20 Y20
G1 F1800 X73.564 Y63.364 E5.32265
G1 X73.665 Y63.028 E5.33432
G1 X73.721 Y62.68 E5.34604
G1 X73.733 Y62.326 E5.35782
G1 X73.699 Y61.975 E5.36955
G1 X73.619 Y61.632 E5.38127
G1 X73.499 Y61.302 E5.39295
G1 X73.335 Y60.989 E5.4047
G1 X73.134 Y60.699 E5.41643
G1 X72.896 Y60.438 E5.42818
G1 X72.628 Y60.21 E5.43989
G1 X72.332 Y60.017 E5.45164
G1 X72.013 Y59.863 E5.46342
G1 X71.678 Y59.752 E5.47516
G1 X71.333 Y59.685 E5.48685
G1 X70.981 Y59.663 E5.49858
G1 X70.63 Y59.685 E5.51027
G1 X70.285 Y59.753 E5.52197
G1 X69.95 Y59.863 E5.5337
G1 X69.631 Y60.018 E5.54549
G1 X69.335 Y60.21 E5.55723
G1 X69.067 Y60.439 E5.56895
G1 X68.83 Y60.7 E5.58068
G1 X68.627 Y60.991 E5.59248
G1 X68.465 Y61.302 E5.60414
G1 X68.344 Y61.632 E5.61583
G1 X68.264 Y61.978 E5.62764
G1 X68.231 Y62.33 E5.6394
G1 X68.243 Y62.681 E5.65108
G1 X68.299 Y63.029 E5.66281
G1 X68.4 Y63.366 E5.67451
G1 X68.543 Y63.688 E5.68623
G1 X68.726 Y63.991 E5.698
G1 X68.945 Y64.265 E5.70967
G1 X69.198 Y64.511 E5.7214
G1 X69.481 Y64.722 E5.73315
G1 X69.789 Y64.895 E5.74489
G1 X70.116 Y65.026 E5.75661
G1 X70.454 Y65.116 E5.76824
G1 X70.805 Y65.162 E5.78002
G1 X71.16 Y65.162 E5.79183
G1 X71.511 Y65.116 E5.8036
G1 X71.849 Y65.026 E5.81523
G1 X72.176 Y64.895 E5.82695
G1 X72.484 Y64.722 E5.8387
G1 X72.767 Y64.511 E5.85044
G1 X73.023 Y64.262 E5.86232
G1 X73.239 Y63.988 E5.87392
G1 X73.422 Y63.689 E5.88558
M204 S5000
M205 X30 Y30
G0 F3600 X68.602 Y96.351
G0 X68.661 Y96.958
G0 X68.872 Y97.532
G0 X69.155 Y97.937
G0 X70.466 Y99.129
M204 S500
M205 X20 Y20
G1 F1800 X70.816 Y99.172 E5.89731
G1 X71.167 Y99.172 E5.90899
G1 X71.516 Y99.129 E5.92068
G1 X71.863 Y99.037 E5.93262
G1 X72.188 Y98.904 E5.9443
G1 X72.491 Y98.732 E5.95589
G1 X72.776 Y98.521 E5.96768
G1 X73.029 Y98.275 E5.97942
G1 X73.248 Y98.001 E5.99109
G1 X73.431 Y97.699 E6.00283
G1 X73.576 Y97.374 E6.01467
G1 X73.674 Y97.035 E6.02641
G1 X73.73 Y96.691 E6.038
G1 X73.742 Y96.339 E6.04971
G1 X73.709 Y95.986 E6.0615
G1 X73.629 Y95.641 E6.07328
G1 X73.506 Y95.31 E6.08503
G1 X73.344 Y95 E6.09666
G1 X73.142 Y94.709 E6.10844
G1 X72.905 Y94.449 E6.12014
G1 X72.637 Y94.22 E6.13187
G1 X72.339 Y94.026 E6.1437
G1 X72.024 Y93.876 E6.1553
G1 X71.69 Y93.763 E6.16703
G1 X71.339 Y93.695 E6.17892
G1 X70.991 Y93.674 E6.19051
G1 X70.639 Y93.695 E6.20224
G1 X70.292 Y93.763 E6.214
G1 X69.958 Y93.875 E6.22572
G1 X69.64 Y94.028 E6.23746
G1 X69.344 Y94.221 E6.24921
G1 X69.076 Y94.449 E6.26091
G1 X68.839 Y94.71 E6.27264
G1 X68.637 Y95.001 E6.28442
G1 X68.476 Y95.313 E6.2961
G1 X68.353 Y95.641 E6.30775
G1 X68.273 Y95.988 E6.31959
G1 X68.24 Y96.34 E6.33135
G1 X68.252 Y96.69 E6.343
G1 X68.308 Y97.039 E6.35476
G1 X68.409 Y97.377 E6.36649
G1 X68.552 Y97.699 E6.37821
G1 X68.735 Y98.002 E6.38998
G1 X68.954 Y98.276 E6.40165
G1 X69.207 Y98.522 E6.41338
G1 X69.49 Y98.733 E6.42513
G1 X69.798 Y98.906 E6.43688
G1 X70.125 Y99.037 E6.44859
G1 X70.466 Y99.129 E6.46034
M204 S5000
M205 X30 Y30
G0 F3600 X70.543 Y98.735
M204 S500
M205 X20 Y20
G1 F1800 X70.841 Y98.772 E6.47033
G1 X71.142 Y98.772 E6.48034
G1 X71.44 Y98.735 E6.49033
G1 X71.735 Y98.657 E6.50047
G1 X72.013 Y98.543 E6.51047
G1 X72.273 Y98.396 E6.5204
G1 X72.516 Y98.216 E6.53046
G1 X72.732 Y98.006 E6.54048
G1 X72.919 Y97.772 E6.55044
G1 X73.076 Y97.513 E6.56052
G1 X73.199 Y97.236 E6.5706
G1 X73.283 Y96.947 E6.58061
G1 X73.331 Y96.652 E6.59055
G1 X73.341 Y96.351 E6.60056
G1 X73.313 Y96.05 E6.61062
G1 X73.245 Y95.756 E6.62066
G1 X73.14 Y95.473 E6.6307
G1 X73.001 Y95.207 E6.64068
G1 X72.829 Y94.959 E6.65072
G1 X72.626 Y94.737 E6.66072
G1 X72.397 Y94.541 E6.67075
G1 X72.143 Y94.376 E6.68082
G1 X71.873 Y94.247 E6.69077
G1 X71.588 Y94.151 E6.70078
G1 X71.289 Y94.093 E6.71091
G1 X70.991 Y94.075 E6.72084
G1 X70.69 Y94.093 E6.73086
G1 X70.394 Y94.151 E6.7409
G1 X70.109 Y94.246 E6.75089
G1 X69.837 Y94.377 E6.76093
G1 X69.584 Y94.542 E6.77098
G1 X69.355 Y94.737 E6.78098
G1 X69.153 Y94.96 E6.79099
G1 X68.98 Y95.208 E6.80104
G1 X68.842 Y95.475 E6.81104
G1 X68.737 Y95.756 E6.82102
G1 X68.669 Y96.052 E6.83112
G1 X68.641 Y96.352 E6.84114
G1 X68.651 Y96.651 E6.85109
G1 X68.699 Y96.95 E6.86116
G1 X68.785 Y97.238 E6.87116
G1 X68.907 Y97.514 E6.8812
G1 X69.064 Y97.773 E6.89127
G1 X69.251 Y98.007 E6.90123
G1 X69.467 Y98.217 E6.91125
G1 X69.709 Y98.397 E6.92128
G1 X69.971 Y98.545 E6.93129
G1 X70.251 Y98.657 E6.94132
G1 X70.543 Y98.735 E6.95138
M204 S5000
M205 X30 Y30
G0 F3600 X70.524 Y98.833
G0 X71.716 Y114.746
G0 X71.724 Y114.845
M204 S500
M205 X20 Y20
G1 F1800 X71.244 Y114.872 E6.96737
G1 X70.748 Y114.872 E6.98386
G1 X70.269 Y114.846 E6.99982
G1 X69.766 Y114.79 E7.01665
G1 X69.277 Y114.709 E7.03314
G1 X68.807 Y114.604 E7.04915
G1 X68.327 Y114.468 E7.06575
G1 X67.872 Y114.312 E7.08175
G1 X67.407 Y114.123 E7.09844
G1 X66.968 Y113.916 E7.11458
G1 X66.535 Y113.682 E7.13095
G1 X66.101 Y113.415 E7.1479
G1 X65.715 Y113.147 E7.16353
G1 X65.326 Y112.845 E7.17991
G1 X64.949 Y112.517 E7.19653
G1 X64.586 Y112.164 E7.21337
G1 X64.263 Y111.813 E7.22924
G1 X63.949 Y111.43 E7.24571
G1 X63.661 Y111.039 E7.26186
G1 X63.391 Y110.625 E7.2783
G1 X63.141 Y110.192 E7.29493
G1 X62.922 Y109.758 E7.3111
G1 X62.726 Y109.313 E7.32727
G1 X62.55 Y108.841 E7.34403
G1 X62.406 Y108.378 E7.36015
G1 X62.282 Y107.889 E7.37693
G1 X62.19 Y107.42 E7.39283
G1 X62.124 Y106.941 E7.40891
G1 X62.082 Y106.434 E7.42583
G1 X62.069 Y105.954 E7.4418
G1 X62.054 Y52.91 E9.20605
G1 X62.069 Y52.402 E9.22296
G1 X62.109 Y51.905 E9.23954
G1 X62.173 Y51.439 E9.25518
G1 X62.269 Y50.945 E9.27192
G1 X62.386 Y50.481 E9.28784
G1 X62.543 Y49.98 E9.3053
G1 X62.712 Y49.528 E9.32135
G1 X62.907 Y49.084 E9.33748
G1 X63.133 Y48.637 E9.35414
G1 X63.366 Y48.233 E9.36965
G1 X63.641 Y47.811 E9.3864
G1 X63.938 Y47.406 E9.40311
G1 X64.237 Y47.043 E9.41875
G1 X64.585 Y46.664 E9.43586
G1 X64.945 Y46.314 E9.45256
G1 X65.301 Y46.005 E9.46824
G1 X65.687 Y45.704 E9.48452
G1 X66.089 Y45.425 E9.5008
G1 X66.511 Y45.166 E9.51727
G1 X66.95 Y44.927 E9.53389
G1 X67.407 Y44.712 E9.55069
G1 X67.841 Y44.535 E9.56628
G1 X68.312 Y44.373 E9.58284
G1 X68.791 Y44.237 E9.59941
G1 X69.254 Y44.134 E9.61518
G1 X69.747 Y44.052 E9.6318
G1 X70.249 Y43.996 E9.6486
G1 X70.729 Y43.969 E9.66459
G1 X71.224 Y43.969 E9.68106
G1 X71.705 Y43.996 E9.69708
G1 X72.206 Y44.05 E9.71384
G1 X72.7 Y44.133 E9.7305
G1 X73.163 Y44.236 E9.74628
G1 X73.646 Y44.373 E9.76298
G1 X74.108 Y44.531 E9.77922
G1 X74.547 Y44.71 E9.79498
G1 X75.016 Y44.931 E9.81223
G1 X75.435 Y45.157 E9.82806
G1 X75.872 Y45.426 E9.84513
G1 X76.25 Y45.688 E9.86043
G1 X76.647 Y45.996 E9.87714
G1 X77.02 Y46.321 E9.89359
G1 X77.379 Y46.67 E9.91025
G1 X77.707 Y47.026 E9.92635
G1 X78.019 Y47.404 E9.94265
G1 X78.316 Y47.808 E9.95933
G1 X78.579 Y48.209 E9.97528
G1 X78.825 Y48.636 E9.99167
G1 X79.052 Y49.084 E10.00837
G1 X79.241 Y49.514 E10.02399
G1 X79.417 Y49.983 E10.04065
G1 X79.568 Y50.465 E10.05745
G1 X79.691 Y50.952 E10.07416
G1 X79.78 Y51.402 E10.08942
G1 X79.848 Y51.891 E10.10584
G1 X79.891 Y52.402 E10.12289
G1 X79.904 Y52.888 E10.13906
G1 X79.919 Y105.931 E11.90328
G1 X79.905 Y106.434 E11.92002
G1 X79.864 Y106.936 E11.93677
G1 X79.8 Y107.402 E11.95241
G1 X79.704 Y107.896 E11.96915
G1 X79.585 Y108.366 E11.98528
G1 X79.439 Y108.836 E12.00165
G1 X79.267 Y109.297 E12.01801
G1 X79.071 Y109.748 E12.03437
G1 X78.852 Y110.182 E12.05054
G1 X78.593 Y110.632 E12.06781
G1 X78.329 Y111.036 E12.08386
G1 X78.044 Y111.424 E12.09987
G1 X77.734 Y111.802 E12.11613
G1 X77.404 Y112.161 E12.13235
G1 X77.04 Y112.515 E12.14924
G1 X76.678 Y112.831 E12.16522
G1 X76.276 Y113.144 E12.18216
G1 X75.881 Y113.42 E12.19819
G1 X75.472 Y113.671 E12.21415
G1 X75.019 Y113.917 E12.2313
G1 X74.585 Y114.121 E12.24725
G1 X74.12 Y114.31 E12.26394
G1 X73.661 Y114.468 E12.28009
G1 X73.182 Y114.604 E12.29665
G1 X72.715 Y114.708 E12.31256
G1 X72.227 Y114.789 E12.32901
G1 X71.724 Y114.845 E12.34585
M204 S5000
M205 X30 Y30
G0 F3600 X71.716 Y114.746
G0 X73.38 Y96.35
G0 X73.155 Y63.549
G0 X73.067 Y63.503
M204 S500
M205 X20 Y20
G1 F1800 X73.188 Y63.226 E12.3559
G1 X73.274 Y62.938 E12.3659
G1 X73.322 Y62.641 E12.3759
G1 X73.332 Y62.339 E12.38595
G1 X73.303 Y62.04 E12.39595
G1 X73.235 Y61.746 E12.40598
G1 X73.132 Y61.464 E12.41597
G1 X72.992 Y61.197 E12.42599
G1 X72.82 Y60.949 E12.43603
G1 X72.617 Y60.726 E12.44606
G1 X72.388 Y60.531 E12.45607
G1 X72.135 Y60.366 E12.46611
G1 X71.863 Y60.235 E12.47615
G1 X71.577 Y60.14 E12.48618
G1 X71.282 Y60.083 E12.49617
G1 X70.981 Y60.064 E12.5062
G1 X70.681 Y60.083 E12.5162
G1 X70.386 Y60.141 E12.5262
G1 X70.1 Y60.235 E12.53621
G1 X69.828 Y60.367 E12.54627
G1 X69.575 Y60.531 E12.5563
G1 X69.346 Y60.727 E12.56632
G1 X69.143 Y60.95 E12.57635
G1 X68.97 Y61.198 E12.58641
G1 X68.832 Y61.464 E12.59638
G1 X68.728 Y61.746 E12.60637
G1 X68.66 Y62.042 E12.61647
G1 X68.632 Y62.342 E12.6265
G1 X68.642 Y62.642 E12.63648
G1 X68.69 Y62.939 E12.64649
G1 X68.776 Y63.227 E12.65648
G1 X68.898 Y63.503 E12.66652
G1 X69.055 Y63.762 E12.67659
G1 X69.242 Y63.996 E12.68656
G1 X69.458 Y64.206 E12.69658
G1 X69.7 Y64.386 E12.70661
G1 X69.962 Y64.534 E12.71662
G1 X70.242 Y64.646 E12.72665
G1 X70.532 Y64.723 E12.73663
G1 X70.831 Y64.762 E12.74665
G1 X71.134 Y64.762 E12.75673
G1 X71.433 Y64.723 E12.76676
G1 X71.723 Y64.646 E12.77674
G1 X72.003 Y64.534 E12.78677
G1 X72.265 Y64.386 E12.79678
G1 X72.507 Y64.206 E12.80681
G1 X72.725 Y63.994 E12.81692
G1 X72.91 Y63.759 E12.82687
G1 X73.067 Y63.503 E12.83686
M204 S5000
M205 X30 Y30
G0 F3600 X72.712 Y63.317
M204 S500
M205 X20 Y20
;TYPE:WALL-OUTER
G1 F1800 X72.812 Y63.088 E12.84517
G1 X72.883 Y62.849 E12.85346
G1 X72.923 Y62.602 E12.86179
G1 X72.931 Y62.352 E12.87011
G1 X72.907 Y62.104 E12.87839
G1 X72.851 Y61.86 E12.88672
G1 X72.765 Y61.626 E12.89501
G1 X72.649 Y61.404 E12.90334
G1 X72.507 Y61.199 E12.91164
G1 X72.338 Y61.014 E12.91997
G1 X72.148 Y60.852 E12.92827
G1 X71.938 Y60.715 E12.93661
G1 X71.713 Y60.607 E12.94492
G1 X71.476 Y60.528 E12.95322
G1 X71.231 Y60.481 E12.96152
G1 X70.981 Y60.465 E12.96985
G1 X70.732 Y60.481 E12.97815
G1 X70.487 Y60.529 E12.98646
G1 X70.25 Y60.607 E12.99475
G1 X70.025 Y60.716 E13.00307
G1 X69.815 Y60.852 E13.01139
G1 X69.625 Y61.015 E13.01972
G1 X69.456 Y61.2 E13.02805
G1 X69.313 Y61.405 E13.03637
G1 X69.199 Y61.626 E13.04464
G1 X69.112 Y61.861 E13.05297
G1 X69.056 Y62.105 E13.0613
G1 X69.033 Y62.354 E13.06961
G1 X69.041 Y62.603 E13.0779
G1 X69.081 Y62.85 E13.08622
G1 X69.152 Y63.089 E13.09452
G1 X69.253 Y63.318 E13.10284
G1 X69.383 Y63.532 E13.11117
G1 X69.539 Y63.727 E13.11947
G1 X69.718 Y63.901 E13.12778
G1 X69.919 Y64.05 E13.1361
G1 X70.136 Y64.173 E13.14439
G1 X70.368 Y64.266 E13.15271
G1 X70.609 Y64.33 E13.161
G1 X70.857 Y64.362 E13.16932
G1 X71.108 Y64.362 E13.17767
G1 X71.356 Y64.33 E13.18598
G1 X71.597 Y64.266 E13.19428
G1 X71.829 Y64.173 E13.20259
G1 X72.046 Y64.05 E13.21089
G1 X72.247 Y63.901 E13.21921
G1 X72.427 Y63.726 E13.22756
G1 X72.581 Y63.53 E13.23585
G1 X72.712 Y63.317 E13.24417
M204 S5000
M205 X30 Y30
G0 F3600 X72.792 Y63.134
G0 X73.249 Y63.334
G0 X72.926 Y94.924
G0 X72.516 Y95.209
M204 S500
M205 X20 Y20
G1 F1800 X72.347 Y95.025 E13.25247
G1 X72.157 Y94.862 E13.2608
G1 X71.947 Y94.726 E13.26912
G1 X71.722 Y94.618 E13.27742
G1 X71.486 Y94.539 E13.2857
G1 X71.239 Y94.491 E13.29407
G1 X70.991 Y94.476 E13.30233
G1 X70.741 Y94.491 E13.31066
G1 X70.496 Y94.539 E13.31897
G1 X70.259 Y94.618 E13.32728
G1 X70.034 Y94.726 E13.33558
G1 X69.824 Y94.863 E13.34392
G1 X69.634 Y95.025 E13.35222
G1 X69.466 Y95.21 E13.36053
G1 X69.323 Y95.415 E13.36885
G1 X69.208 Y95.637 E13.37716
G1 X69.121 Y95.871 E13.38547
G1 X69.065 Y96.115 E13.39379
G1 X69.042 Y96.364 E13.40211
G1 X69.05 Y96.613 E13.41039
G1 X69.09 Y96.861 E13.41875
G1 X69.161 Y97.1 E13.42704
G1 X69.262 Y97.329 E13.43537
G1 X69.392 Y97.543 E13.4437
G1 X69.548 Y97.738 E13.452
