;FLAVOR:Marlin
;TIME:1651
;Filament used: 1.65972m
;Layer height: 0.2
;Generated with Cura_SteamEngine 3.5.0
M140 S60
M105
M190 S60
M104 S220
M105
M109 S220
M82 ;absolute extrusion mode
G28 ;Home
G1 Z15.0 F6000 ;Move the platform down 15mm
;Prime the extruder
G92 E0
G1 F200 E3
G92 E0
G92 E0
G1 F2400 E-5
;LAYER_COUNT:13
;LAYER:0
M107
M204 S5000
M205 X30 Y30
G0 F3600 X77.545 Y18.249 Z0.2
M204 S500
M205 X20 Y20
;TYPE:WALL-INNER
G1 F2400 E0
G1 F1800 X77.501 Y17.77 E0.016
G1 X77.377 Y17.306 E0.03197
G1 X77.175 Y16.872 E0.04789
G1 X76.9 Y16.479 E0.06385
G1 X76.56 Y16.139 E0.07984
G1 X76.165 Y15.863 E0.09587
G1 X75.73 Y15.662 E0.11181
G1 X75.27 Y15.538 E0.12765
G1 X74.79 Y15.494 E0.14368
G1 X74.311 Y15.538 E0.15968
G1 X73.849 Y15.662 E0.17559
G1 X73.415 Y15.863 E0.1915
G1 X73.02 Y16.138 E0.20751
G1 X72.679 Y16.479 E0.22355
G1 X72.404 Y16.872 E0.2395
G1 X72.202 Y17.305 E0.25539
G1 X72.076 Y17.772 E0.27148
G1 X72.037 Y18.249 E0.2874
G1 X72.076 Y18.726 E0.30332
G1 X72.202 Y19.193 E0.31941
G1 X72.404 Y19.626 E0.3353
G1 X72.679 Y20.019 E0.35125
G1 X73.02 Y20.36 E0.36729
G1 X73.415 Y20.635 E0.3833
G1 X73.849 Y20.836 E0.39921
G1 X74.311 Y20.96 E0.41512
G1 X74.79 Y21.004 E0.43111
G1 X75.27 Y20.96 E0.44715
G1 X75.73 Y20.836 E0.46299
G1 X76.165 Y20.635 E0.47893
G1 X76.56 Y20.359 E0.49496
G1 X76.9 Y20.019 E0.51095
G1 X77.175 Y19.626 E0.5269
G1 X77.377 Y19.192 E0.54283
G1 X77.501 Y18.728 E0.5588
G1 X77.545 Y18.249 E0.5748
M204 S5000
M205 X30 Y30
G0 F3600 X75.307 Y13.838
G0 X65.317 Y16.353
G0 X65.282 Y57.1
G0 X64.997 Y59.45
G0 X64.425 Y61.771
G0 X63.585 Y63.982
G0 X62.482 Y66.087
G0 X61.132 Y68.045
G0 X59.552 Y69.829
G0 X57.766 Y71.411
G0 X55.808 Y72.761
G0 X53.709 Y73.861
G0 X51.492 Y74.704
G0 X50.179 Y75.026
G0 X32.718 Y78.989
M204 S500
M205 X20 Y20
G1 F1800 X32.655 Y80.721 E0.63244
G1 X32.43 Y80.827 E0.64072
G1 X32.074 Y81.075 E0.65515
G1 X31.764 Y81.384 E0.6697
G1 X31.514 Y81.742 E0.68423
G1 X31.41 Y81.966 E0.69244
G1 X29.678 Y82.029 E0.75009
G1 X29.678 Y111.949 E1.74523
G1 X31.41 Y112.012 E1.80287
G1 X31.514 Y112.236 E1.81109
G1 X31.764 Y112.594 E1.82561
G1 X32.074 Y112.903 E1.84017
G1 X32.43 Y113.151 E1.8546
G1 X32.655 Y113.257 E1.86287
G1 X32.718 Y114.989 E1.92052
G1 X62.639 Y114.989 E2.91569
G1 X62.702 Y113.257 E2.97334
G1 X62.927 Y113.151 E2.98161
G1 X63.283 Y112.903 E2.99604
G1 X63.593 Y112.594 E3.0106
G1 X63.843 Y112.234 E3.02518
G1 X63.946 Y112.012 E3.03332
G1 X65.678 Y111.949 E3.09096
G1 X65.678 Y82.029 E4.0861
G1 X63.946 Y81.966 E4.14375
G1 X63.843 Y81.744 E4.15189
G1 X63.593 Y81.384 E4.16647
G1 X63.283 Y81.075 E4.18102
G1 X62.927 Y80.827 E4.19545
G1 X62.702 Y80.721 E4.20373
G1 X62.639 Y78.989 E4.26137
G1 X32.718 Y78.989 E5.25655
M204 S5000
M205 X30 Y30
G0 F3600 X30.05 Y82.388
G0 X30.05 Y111.59
G0 X33.077 Y114.617
G0 X51.491 Y119.274
G0 X53.709 Y120.117
G0 X55.808 Y121.217
G0 X57.766 Y122.567
G0 X59.552 Y124.149
G0 X61.132 Y125.933
G0 X62.482 Y127.891
G0 X63.58 Y129.985
G0 X64.425 Y132.207
G0 X64.997 Y134.528
G0 X68.867 Y165.892
M204 S500
M205 X20 Y20
G1 F1800 X69.065 Y166.631 E5.28199
G1 X69.339 Y167.347 E5.30749
G1 X69.685 Y168.031 E5.33299
G1 X70.1 Y168.675 E5.35847
G1 X70.58 Y169.271 E5.38392
G1 X71.12 Y169.815 E5.40942
G1 X71.714 Y170.299 E5.4349
G1 X72.354 Y170.719 E5.46036
G1 X73.035 Y171.07 E5.48584
G1 X73.748 Y171.348 E5.5113
G1 X74.486 Y171.551 E5.53675
G1 X75.71 Y171.756 E5.57803
G1 X76.179 Y171.895 E5.5943
G1 X76.599 Y172.073 E5.60947
G1 X77.019 Y172.315 E5.62559
G1 X77.391 Y172.588 E5.64094
G1 X77.753 Y172.928 E5.65746
G1 X78.051 Y173.28 E5.6728
G1 X78.311 Y173.673 E5.68847
G1 X78.533 Y174.109 E5.70475
G1 X78.692 Y174.542 E5.72009
G1 X78.804 Y175.008 E5.73603
G1 X78.86 Y175.48 E5.75184
G1 X78.862 Y175.96 E5.7678
G1 X78.809 Y176.415 E5.78304
G1 X78.697 Y176.899 E5.79956
G1 X78.538 Y177.337 E5.81506
G1 X78.325 Y177.762 E5.83087
G1 X78.067 Y178.155 E5.84651
G1 X77.759 Y178.526 E5.86254
G1 X77.417 Y178.849 E5.87819
G1 X77.032 Y179.136 E5.89416
G1 X76.625 Y179.371 E5.90979
G1 X76.186 Y179.561 E5.9257
G1 X75.733 Y179.697 E5.94143
G1 X75.26 Y179.781 E5.95741
G1 X74.766 Y179.809 E5.97387
G1 X67.895 Y179.809 E6.2024
G1 X67.544 Y179.784 E6.2141
G1 X67.235 Y179.716 E6.22463
G1 X66.95 Y179.611 E6.23473
G1 X66.685 Y179.465 E6.24479
G1 X66.429 Y179.274 E6.25542
G1 X66.213 Y179.058 E6.26558
G1 X66.024 Y178.804 E6.27611
G1 X65.876 Y178.535 E6.28632
G1 X65.769 Y178.248 E6.29651
G1 X65.703 Y177.942 E6.30692
G1 X65.678 Y177.604 E6.31819
G1 X65.678 Y138.056 E7.63356
G1 X65.642 Y136.86 E7.67336
G1 X65.532 Y135.654 E7.71364
G1 X65.351 Y134.457 E7.7539
G1 X65.097 Y133.272 E7.79421
G1 X64.771 Y132.105 E7.83451
G1 X64.375 Y130.96 E7.87481
G1 X63.912 Y129.842 E7.91505
G1 X63.381 Y128.753 E7.95535
G1 X62.788 Y127.698 E7.9956
G1 X62.129 Y126.681 E8.03591
G1 X61.412 Y125.705 E8.07619
G1 X60.637 Y124.775 E8.11645
G1 X59.807 Y123.893 E8.15674
G1 X58.924 Y123.061 E8.19709
G1 X57.994 Y122.287 E8.23733
G1 X57.018 Y121.57 E8.27761
G1 X56.001 Y120.911 E8.31792
G1 X54.946 Y120.318 E8.35817
G1 X53.857 Y119.787 E8.39847
G1 X52.739 Y119.323 E8.43873
G1 X51.593 Y118.928 E8.47904
G1 X50.427 Y118.602 E8.51931
G1 X49.242 Y118.348 E8.55962
G1 X48.045 Y118.166 E8.59989
G1 X46.838 Y118.057 E8.6402
G1 X45.643 Y118.021 E8.67996
G1 X27.428 Y118.021 E9.2858
G1 X27.27 Y118.007 E9.29107
G1 X27.142 Y117.973 E9.29548
G1 X27.029 Y117.92 E9.29963
G1 X26.915 Y117.84 E9.30426
G1 X26.826 Y117.751 E9.30845
G1 X26.748 Y117.64 E9.31296
G1 X26.694 Y117.525 E9.31718
G1 X26.662 Y117.406 E9.32128
G1 X26.647 Y117.227 E9.32726
G1 X26.647 Y76.751 E10.67349
G1 X26.662 Y76.572 E10.67947
G1 X26.694 Y76.453 E10.68357
G1 X26.748 Y76.338 E10.68779
G1 X26.826 Y76.227 E10.69231
G1 X26.915 Y76.138 E10.69649
G1 X27.029 Y76.058 E10.70112
G1 X27.142 Y76.005 E10.70528
G1 X27.27 Y75.971 E10.70968
G1 X27.428 Y75.957 E10.71496
G1 X45.643 Y75.957 E11.32079
G1 X46.838 Y75.921 E11.36055
G1 X48.045 Y75.812 E11.40086
G1 X49.242 Y75.63 E11.44113
G1 X50.427 Y75.376 E11.48144
G1 X51.594 Y75.05 E11.52174
G1 X52.739 Y74.654 E11.56204
G1 X53.857 Y74.191 E11.60228
G1 X54.946 Y73.66 E11.64258
G1 X56.001 Y73.067 E11.68283
G1 X57.018 Y72.408 E11.72314
G1 X57.994 Y71.691 E11.76342
G1 X58.924 Y70.917 E11.80366
G1 X59.807 Y70.085 E11.84401
G1 X60.637 Y69.203 E11.8843
G1 X61.412 Y68.273 E11.92456
G1 X62.129 Y67.297 E11.96484
G1 X62.788 Y66.28 E12.00515
G1 X63.381 Y65.225 E12.0454
G1 X63.912 Y64.136 E12.0857
G1 X64.375 Y63.018 E12.12594
G1 X64.771 Y61.873 E12.16624
G1 X65.097 Y60.706 E12.20654
G1 X65.351 Y59.521 E12.24685
G1 X65.532 Y58.324 E12.28711
G1 X65.642 Y57.118 E12.32739
G1 X65.678 Y55.922 E12.36719
G1 X65.678 Y16.374 E13.68256
G1 X65.703 Y16.036 E13.69383
G1 X65.769 Y15.73 E13.70425
G1 X65.875 Y15.447 E13.7143
G1 X66.028 Y15.167 E13.72491
G1 X66.212 Y14.921 E13.73513
G1 X66.429 Y14.704 E13.74533
G1 X66.685 Y14.513 E13.75596
G1 X66.95 Y14.367 E13.76602
G1 X67.235 Y14.262 E13.77612
G1 X67.544 Y14.194 E13.78665
G1 X67.895 Y14.169 E13.79835
G1 X74.77 Y14.169 E14.02701
G1 X75.258 Y14.196 E14.04327
G1 X75.733 Y14.281 E14.05932
G1 X76.186 Y14.417 E14.07505
G1 X76.625 Y14.607 E14.09096
G1 X77.032 Y14.842 E14.10659
G1 X77.417 Y15.129 E14.12256
G1 X77.759 Y15.452 E14.13821
G1 X78.067 Y15.823 E14.15425
G1 X78.325 Y16.216 E14.16988
G1 X78.538 Y16.641 E14.18569
G1 X78.696 Y17.077 E14.20112
G1 X78.809 Y17.564 E14.21775
G1 X78.862 Y18.018 E14.23295
G1 X78.86 Y18.498 E14.24891
G1 X78.804 Y18.97 E14.26472
G1 X78.692 Y19.436 E14.28066
G1 X78.533 Y19.869 E14.29601
G1 X78.309 Y20.309 E14.31243
G1 X78.054 Y20.694 E14.32779
G1 X77.744 Y21.06 E14.34374
G1 X77.405 Y21.379 E14.35922
G1 X77.013 Y21.667 E14.3754
G1 X76.599 Y21.905 E14.39128
G1 X76.179 Y22.083 E14.40646
G1 X75.71 Y22.222 E14.42272
G1 X74.486 Y22.427 E14.464
G1 X73.748 Y22.63 E14.48946
G1 X73.035 Y22.908 E14.51491
G1 X72.354 Y23.259 E14.54039
G1 X71.714 Y23.679 E14.56586
G1 X71.12 Y24.163 E14.59134
G1 X70.58 Y24.707 E14.61683
G1 X70.1 Y25.303 E14.64229
G1 X69.685 Y25.947 E14.66777
G1 X69.339 Y26.631 E14.69326
G1 X69.065 Y27.347 E14.71876
G1 X68.867 Y28.086 E14.74421
G1 X68.749 Y28.843 E14.76969
G1 X68.71 Y29.583 E14.79434
G1 X68.71 Y164.395 E19.2782
G1 X68.749 Y165.133 E19.30278
G1 X68.867 Y165.892 E19.32833
M204 S5000
M205 X30 Y30
G0 F3600 X70.395 Y168.465
G0 X70.944 Y169.078
G0 X74.79 Y172.974
M204 S500
M205 X20 Y20
G1 F1800 X74.312 Y173.018 E19.3443
G1 X73.849 Y173.14 E19.36022
G1 X73.414 Y173.343 E19.37619
G1 X73.02 Y173.618 E19.39217
G1 X72.679 Y173.959 E19.40821
G1 X72.404 Y174.352 E19.42416
G1 X72.202 Y174.785 E19.44005
G1 X72.076 Y175.252 E19.45614
G1 X72.037 Y175.729 E19.47206
G1 X72.076 Y176.206 E19.48798
G1 X72.202 Y176.672 E19.50403
G1 X72.404 Y177.106 E19.51995
G1 X72.679 Y177.499 E19.53591
G1 X73.02 Y177.84 E19.55195
G1 X73.414 Y178.114 E19.56791
G1 X73.847 Y178.316 E19.5838
G1 X74.311 Y178.44 E19.59978
G1 X74.79 Y178.484 E19.61577
G1 X75.269 Y178.44 E19.63177
G1 X75.732 Y178.316 E19.64771
G1 X76.165 Y178.114 E19.66361
G1 X76.56 Y177.84 E19.6796
G1 X76.9 Y177.499 E19.69561
G1 X77.175 Y177.106 E19.71157
G1 X77.377 Y176.671 E19.72752
G1 X77.501 Y176.208 E19.74346
G1 X77.545 Y175.729 E19.75946
G1 X77.501 Y175.25 E19.77546
G1 X77.377 Y174.786 E19.79143
G1 X77.175 Y174.352 E19.80735
G1 X76.9 Y173.959 E19.82331
G1 X76.56 Y173.62 E19.83928
G1 X76.167 Y173.343 E19.85527
G1 X75.73 Y173.14 E19.87129
G1 X75.269 Y173.018 E19.88715
G1 X74.79 Y172.974 E19.90315
M204 S5000
M205 X30 Y30
G0 F3600 X74.79 Y173.376
M204 S500
M205 X20 Y20
G1 F1800 X74.382 Y173.413 E19.91678
G1 X73.986 Y173.518 E19.9304
G1 X73.614 Y173.691 E19.94405
G1 X73.278 Y173.926 E19.95769
G1 X72.987 Y174.217 E19.97138
G1 X72.752 Y174.553 E19.98501
G1 X72.579 Y174.923 E19.9986
G1 X72.472 Y175.321 E20.01231
G1 X72.438 Y175.729 E20.02592
G1 X72.472 Y176.137 E20.03954
G1 X72.579 Y176.534 E20.05322
G1 X72.752 Y176.905 E20.06683
G1 X72.987 Y177.241 E20.08047
G1 X73.278 Y177.532 E20.09416
G1 X73.614 Y177.766 E20.10777
G1 X73.984 Y177.939 E20.12136
G1 X74.381 Y178.045 E20.13503
G1 X74.79 Y178.082 E20.14868
G1 X75.199 Y178.045 E20.16234
G1 X75.595 Y177.939 E20.17598
G1 X75.965 Y177.766 E20.18956
G1 X76.302 Y177.532 E20.20321
G1 X76.592 Y177.241 E20.21687
G1 X76.827 Y176.905 E20.23051
G1 X77 Y176.534 E20.24413
G1 X77.106 Y176.138 E20.25776
G1 X77.143 Y175.729 E20.27142
G1 X77.106 Y175.32 E20.28508
G1 X77 Y174.923 E20.29875
G1 X76.827 Y174.553 E20.31233
G1 X76.592 Y174.217 E20.32597
G1 X76.302 Y173.927 E20.33961
G1 X75.966 Y173.691 E20.35327
G1 X75.593 Y173.518 E20.36694
G1 X75.199 Y173.413 E20.3805
G1 X74.79 Y173.376 E20.39416
M204 S5000
M205 X30 Y30
G0 F3600 X74.79 Y173.276
G0 X70.849 Y169.028
G0 X69.992 Y167.842
G0 X69.661 Y167.093
G0 X69.161 Y165.825
G0 X69.259 Y165.809
M204 S500
M205 X20 Y20
G1 F1800 X69.446 Y166.508 E20.41823
G1 X69.705 Y167.185 E20.44234
G1 X70.032 Y167.832 E20.46645
G1 X70.425 Y168.44 E20.49053
G1 X70.879 Y169.004 E20.51461
G1 X71.389 Y169.518 E20.53869
G1 X71.951 Y169.976 E20.5628
G1 X72.556 Y170.373 E20.58687
G1 X73.2 Y170.705 E20.61097
G1 X73.874 Y170.968 E20.63503
G1 X74.572 Y171.16 E20.65911
G1 X75.801 Y171.365 E20.70055
G1 X76.307 Y171.515 E20.71811
G1 X76.78 Y171.716 E20.7352
G1 X77.236 Y171.978 E20.75269
G1 X77.651 Y172.283 E20.76982
G1 X78.042 Y172.65 E20.78766
G1 X78.371 Y173.038 E20.80458
G1 X78.659 Y173.474 E20.82196
G1 X78.898 Y173.944 E20.8395
G1 X79.077 Y174.431 E20.85675
G1 X79.198 Y174.934 E20.87396
G1 X79.26 Y175.458 E20.89151
G1 X79.262 Y175.979 E20.90884
G1 X79.203 Y176.489 E20.92591
G1 X79.082 Y177.01 E20.9437
G1 X78.905 Y177.498 E20.96097
G1 X78.674 Y177.96 E20.97815
G1 X78.386 Y178.398 E20.99558
G1 X78.052 Y178.8 E21.01297
G1 X77.676 Y179.155 E21.03017
G1 X77.256 Y179.468 E21.04759
G1 X76.802 Y179.73 E21.06502
G1 X76.324 Y179.937 E21.08235
G1 X75.825 Y180.087 E21.09968
G1 X75.309 Y180.178 E21.1171
G1 X74.772 Y180.209 E21.135
G1 X67.881 Y180.209 E21.36419
G1 X67.484 Y180.181 E21.37743
G1 X67.125 Y180.102 E21.38965
G1 X66.785 Y179.976 E21.40171
G1 X66.465 Y179.8 E21.41386
G1 X66.166 Y179.577 E21.42627
G1 X65.91 Y179.321 E21.43831
G1 X65.687 Y179.022 E21.45071
G1 X65.512 Y178.703 E21.46282
G1 X65.384 Y178.359 E21.47502
G1 X65.306 Y178 E21.48724
G1 X65.278 Y177.619 E21.49995
G1 X65.278 Y138.062 E22.81562
G1 X65.243 Y136.884 E22.85482
G1 X65.135 Y135.702 E22.8943
G1 X64.957 Y134.529 E22.93376
G1 X64.708 Y133.368 E22.97325
G1 X64.389 Y132.224 E23.01275
G1 X64.001 Y131.102 E23.05224
G1 X63.547 Y130.006 E23.09169
G1 X63.027 Y128.939 E23.13117
G1 X62.445 Y127.905 E23.17064
G1 X61.8 Y126.908 E23.21013
G1 X61.097 Y125.952 E23.2496
G1 X60.337 Y125.04 E23.28908
G1 X59.524 Y124.176 E23.32854
G1 X58.659 Y123.361 E23.36807
G1 X57.747 Y122.602 E23.40754
G1 X56.791 Y121.899 E23.447
G1 X55.794 Y121.254 E23.4865
G1 X54.76 Y120.672 E23.52596
G1 X53.693 Y120.152 E23.56544
G1 X52.597 Y119.697 E23.60491
G1 X51.474 Y119.31 E23.64442
G1 X50.331 Y118.991 E23.68389
G1 X49.17 Y118.742 E23.72338
G1 X47.997 Y118.563 E23.76285
G1 X46.814 Y118.456 E23.80235
G1 X45.637 Y118.421 E23.84152
G1 X27.416 Y118.421 E24.44755
G1 X27.199 Y118.402 E24.4548
G1 X27.006 Y118.35 E24.46144
G1 X26.826 Y118.266 E24.46805
G1 X26.656 Y118.147 E24.47495
G1 X26.519 Y118.01 E24.4814
G1 X26.4 Y117.84 E24.4883
G1 X26.318 Y117.666 E24.4947
G1 X26.266 Y117.472 E24.50138
G1 X26.247 Y117.249 E24.50882
G1 X26.247 Y76.729 E25.85652
G1 X26.266 Y76.506 E25.86396
G1 X26.318 Y76.312 E25.87065
G1 X26.4 Y76.138 E25.87704
G1 X26.519 Y75.968 E25.88394
G1 X26.656 Y75.831 E25.89039
G1 X26.826 Y75.712 E25.89729
G1 X27.006 Y75.628 E25.9039
G1 X27.199 Y75.576 E25.91055
G1 X27.416 Y75.557 E25.91779
G1 X45.637 Y75.557 E26.52382
G1 X46.814 Y75.522 E26.56299
G1 X47.997 Y75.415 E26.6025
G1 X49.17 Y75.236 E26.64196
G1 X50.331 Y74.987 E26.68145
G1 X51.475 Y74.668 E26.72096
G1 X52.597 Y74.28 E26.76044
G1 X53.693 Y73.826 E26.7999
G1 X54.76 Y73.306 E26.83938
G1 X55.794 Y72.724 E26.87884
G1 X56.791 Y72.079 E26.91834
G1 X57.747 Y71.376 E26.9578
G1 X58.659 Y70.617 E26.99727
G1 X59.524 Y69.802 E27.0368
G1 X60.337 Y68.938 E27.07626
G1 X61.097 Y68.026 E27.11574
G1 X61.8 Y67.07 E27.15521
G1 X62.445 Y66.073 E27.1947
G1 X63.027 Y65.039 E27.23417
G1 X63.547 Y63.972 E27.27365
G1 X64.001 Y62.876 E27.3131
G1 X64.389 Y61.754 E27.35259
G1 X64.708 Y60.61 E27.39209
G1 X64.957 Y59.449 E27.43158
G1 X65.135 Y58.276 E27.47104
G1 X65.243 Y57.094 E27.51052
G1 X65.278 Y55.916 E27.54972
G1 X65.278 Y16.359 E28.86539
G1 X65.306 Y15.978 E28.8781
G1 X65.384 Y15.619 E28.89032
G1 X65.51 Y15.28 E28.90234
G1 X65.69 Y14.95 E28.91485
G1 X65.91 Y14.657 E28.92703
G1 X66.166 Y14.401 E28.93908
G1 X66.465 Y14.178 E28.95148
G1 X66.785 Y14.002 E28.96363
G1 X67.125 Y13.876 E28.97569
G1 X67.484 Y13.797 E28.98791
G1 X67.881 Y13.769 E29.00115
G1 X74.774 Y13.769 E29.23041
G1 X75.309 Y13.799 E29.24824
G1 X75.824 Y13.891 E29.26564
G1 X76.324 Y14.041 E29.283
G1 X76.802 Y14.248 E29.30032
G1 X77.256 Y14.51 E29.31776
G1 X77.676 Y14.823 E29.33518
G1 X78.052 Y15.178 E29.35238
G1 X78.386 Y15.58 E29.36976
G1 X78.674 Y16.018 E29.3872
G1 X78.905 Y16.48 E29.40438
G1 X79.082 Y16.968 E29.42164
G1 X79.203 Y17.488 E29.4394
G1 X79.262 Y17.999 E29.45651
G1 X79.26 Y18.52 E29.47384
G1 X79.198 Y19.044 E29.49139
G1 X79.077 Y19.547 E29.50859
G1 X78.898 Y20.034 E29.52585
G1 X78.658 Y20.506 E29.54346
G1 X78.375 Y20.933 E29.5605
G1 X78.033 Y21.337 E29.57811
G1 X77.656 Y21.692 E29.59533
G1 X77.236 Y22 E29.61265
G1 X76.78 Y22.262 E29.63014
G1 X76.307 Y22.463 E29.64724
G1 X75.801 Y22.613 E29.66479
G1 X74.572 Y22.818 E29.70623
G1 X73.874 Y23.01 E29.73031
G1 X73.2 Y23.273 E29.75437
G1 X72.556 Y23.605 E29.77847
G1 X71.951 Y24.002 E29.80254
